X:1
T:Green Bushes
M:3/4
L:1/4
K:F
 C| F F G| _E F G| cc/2-A/2G/2-F/2| _E- F G/2A/2| F F G| _E F(2G3.99999962500005/11.9999985000002G3.99999962500005/11.9999985000002A3.99999962500005/11.9999985000002 B3.99999962500005/11.9999985000002|\
 c _e d| c2A/2-B/2| c c f| c d _e|G/2-A/2B/2-A/2G/2-F/2| _E- FG/2-A/2|\
 FF/2-A/2G/2-A/2| _E FA/2-B/2| cc/2-A/2 G| F2||
